!!!!SEGMENT: pl-gd--ee-1638--005-016_marenzio-luca--il-primo-libro-de-madrigali-spirituali-a-cinque-voci-fallace-incerta.krn
!!!cenid: 15xx:969
!!!COM: Marenzio, Luca
!!!COM-rismID: pe30003955
!!!CDT: ~1553-1599/08/22
!!!CNT: Italian
!!!GTL: Il Primo libro de madrigali spirituali a cinque voci
!!!OTL: Fallace incerta
!!!OMV: 016
!!!PDT: 1588
!!!AGN:
!!!SMS-siglum: PL-GD
!!!SMS-shelfmark: Ee 1638
!!!SMS-shelfwork: 005-016 G
!!!SMS-variant:
!!!SMS-altvar:
!!!NIFC-rismSourceID: 990039269
!!!NIFC-islandoraID: pl-gd:57883
!!!URL-pdf-islandora: https://repozytorium.nifc.pl/islandora/object/pl-gd%3A57883/datastream/PDF/view
!!!URL-scan: https://polish.musicsources.pl/pl/lokalizacje/galeria/klocki-introligatorskie/655 @EN{Scan on Polish Music Sources Website} @PL{Skany w portalu Dziedzictwo Muzyki Polskiej w otwartym dostępie}
!!!ONB-nifc: UWAGA: zbiór na stronach: Canto: s. 666-677, Alto: s. 514-525, Tenore: s. 362-373, Bassus: s. 210-221, Quinto: s. 58-69. Uwaga: utwory podzielone wg tytułów w spisach treści dostępnych na końcu każdej księgi głosowej.
!!!AIN: 1 alto 1 bass 1 soprn 2 tenor
!!!key: d:aeo
**kern	**text	**kern	**text	**kern	**text	**kern	**text	**kern	**text
*part5	*part5	*part4	*part4	*part3	*part3	*part2	*part2	*part1	*part1
*staff5	*staff5	*staff4	*staff4	*staff3	*staff3	*staff2	*staff2	*staff1	*staff1
*I"BASSO	*	*I"QVINTO	*	*I"TENORE	*	*I"ALTO	*	*I"CANTO	*
*mI"Basso	*	*mI"Quinto	*	*mI"Tenore	*	*mI"Alto	*	*mI"Soprano	*
*I'B	*	*I'V 5	*	*I'T	*	*I'A	*	*I'S	*
*Ibass	*	*Itenor	*	*Itenor	*	*Ialto	*	*Isoprn	*
*ICvox	*	*ICvox	*	*ICvox	*	*ICvox	*	*ICvox	*
*clefC4	*	*clefC3	*	*clefC3	*	*clefC2	*	*clefG2	*
*mclefGv2	*	*mclefGv2	*	*mclefGv2	*	*mclefG2	*	*	*
*k[b-]	*	*k[b-]	*	*k[b-]	*	*k[b-]	*	*k[b-]	*
*d:aeo	*	*d:aeo	*	*d:aeo	*	*d:aeo	*	*d:aeo	*
*M2/1	*	*M2/1	*	*M2/1	*	*M2/1	*	*M2/1	*
*met(C)	*	*met(C)	*	*met(C)	*	*met(C)	*	*met(C)	*
*mmet(c)	*	*mmet(c)	*	*mmet(c)	*	*mmet(c)	*	*mmet(c)	*
=1-	=1-	=1-	=1-	=1-	=1-	=1-	=1-	=1-	=1-
!!LO:TX:a:t= :mod=Seconda parte
!	!	!	!	!LO:TX:b:i:t=FAllace:mod=	!	!	!	!	!
!LO:TX:a:i:t=Seconda Parte:mod=	!	!LO:TX:a:i:t=Seconda Parte:mod=	!	!LO:TX:a:i:t=Seconda Parte:mod=	!	!LO:TX:a:i:t=Seconda Parte:mod=	!LO:MO:mod=Fal-	!LO:TX:a:i:t=Seconda Parte:mod=	!
00r	.	2r	.	00r	.	1f	FAl-	0r	.
!	!	!	!LO:MO:mod=Fal-	!	!	!	!	!	!
.	.	1f	FAl-	.	.	.	.	.	.
.	.	.	.	.	.	1a	-la-	.	.
.	.	1d\	-la-	.	.	.	.	.	.
=2-	=2-	=2-	=2-	=2-	=2-	=2-	=2-	=2-	=2-
.	.	.	.	.	.	2b-\	-ce_in-	1r	.
.	.	2c#X/	-ce_in-	.	.	2a\	-cer-	.	.
.	.	4d\	-cer-	.	.	2a\	-ta_e	2r	.
.	.	4A/	-ta_e	.	.	.	.	.	.
!	!	!	!	!	!	!	!	!	!LO:MO:mod=Fal-
.	.	8B-/	mo-	.	.	8d/	mo-	1ff\	FAl-
!	!	!LO:SIC:s=8ci	!	!	!	!	!	!	!
.	.	8c#/	-men-	.	.	8e/	-men-	.	.
.	.	8d\	-ta-	.	.	8f\	-ta-	.	.
.	.	8e\	-nea	.	.	8g\	-nea	.	.
=3-	=3-	=3-	=3-	=3-	=3-	=3-	=3-	=3-	=3-
!	!LO:MO:mod=Fal-	!	!	!	!	!	!	!	!
1F	FAl-	1.f	vi-	1r	.	1a	vi-	.	.
.	.	.	.	.	.	.	.	1dd	-la-
1A	-la-	.	.	2r	.	1a	-ta	.	.
!	!	!	!	!	!LO:MO:mod=e	!	!	!	!
.	.	4e\	-ta	2a\	E	.	.	2cc#X\	-ce_in-
*	*	*	*ij	*	*	*	*	*	*
.	.	2f\	fal-	.	.	.	.	.	.
=4-	=4-	=4-	=4-	=4-	=4-	=4-	=4-	=4-	=4-
2B-\	-ce_in-	.	.	8d\	mo-	2r	.	4.dd\	-cer-
.	.	.	.	8e\	-men-	.	.	.	.
.	.	2d\	-la	8f\	-ta-	.	.	.	.
.	.	.	.	8g\	-nea	.	.	8ee\	.
2A/	-cer-	.	.	1a	vi-	4r	.	4ff\	.
.	.	4c#X/	-ce_in-	.	.	4e/	e	4ee\	-ta
2d\	-ta_e	2d\	-cer-	.	.	8f\	mo-	4r	.
!	!	!	!	!	!	!	!LO:MO:mod=-men-	!	!
.	.	.	.	.	.	8g\	-me(n)-	.	.
.	.	.	.	.	.	8a\	-ta-	4ff\	e
.	.	.	.	.	.	8f\	-nea	.	.
!	!	!	!	!	!	!LO:SIC:v:t=custos a	!	!	!
8G/	mo-	2d\	-ta_e	2g\	-ta	2b-\	vi-	8b-/	mo-
8A/	-men-	.	.	.	.	.	.	8ccny\	-men-
8B-\	-ta-	.	.	.	.	.	.	8dd\	-ta-
8c\	-nea	.	.	.	.	.	.	8ee\	-nea
!	!	!	!	!	!	!LO:LB:g=original	!	!	!
=5-	=5-	=5-	=5-	=5-	=5-	=5-	=5-	=5-	=5-
1d	vi-	8d\	mo-	4r	.	1a	-ta	1ff	vi-
!	!	!LO:SIC:v:t=custos f	!	!	!	!	!	!	!
.	.	8e\	-men-	.	.	.	.	.	.
!	!	!LO:LB:g=original	!	!	!LO:MO:mod=fal-	!	!	!	!
.	.	8f\	-ta	2f\	Fal-	.	.	.	.
.	.	8g\	-nea	.	.	.	.	.	.
.	.	2a\	vi-	.	.	.	.	.	.
.	.	.	.	2d\	-la-	.	.	.	.
2A/	-ta	1a	-ta	.	.	2r	.	2ee\	-ta
.	.	.	.	4c#X/	-ce_in-	.	.	.	.
*	*	*	*	*	*	*	*ij	*	*
2r	.	.	.	4d\	-cer-	2a\	e	4r	.
!	!	!	!	!	!	!	!	!	!LO:MO:mod=Che
.	.	.	.	4A/	-ta_e	.	.	4cc\	che
*	*	*	*Xij	*	*	*	*	*	*
=6-	=6-	=6-	=6-	=6-	=6-	=6-	=6-	=6-	=6-
1r	.	1r	.	8B-/	mo-	8d/	mo-	4.dd\	le
!	!	!	!	!LO:SIC:s=8ci	!	!	!LO:MO:mod=-men-	!	!
.	.	.	.	8cny/	-men-	8e/	-me(n)-	.	.
.	.	.	.	8d\	-ta-	8f\	-ta-	.	.
!	!	!	!	!	!	!	!	!LO:SIC:v:t=custos cc	!
.	.	.	.	8B-/	-nea	8g\	-nea	8dd\	più
!	!	!	!	!	!	!	!	!LO:LB:g=original	!
.	.	.	.	2f\	vi-	2a\	vi-	4cc\	vol-
.	.	.	.	.	.	.	.	4ff\	-te
!	!	!	!	!LO:SIC:v:t=custos c	!	!	!	!	!
4r	.	4r	.	2c/	-ta	4g\	-ta	2ee\	man-
*	*	*	*	*	*	*	*Xij	*	*
4c\	Che	4e\	Che	.	.	4cc\	Che	.	.
!	!	!	!	!LO:LB:g=original	!	!	!	!	!
4.d\	le	4.f\	le	2r	.	4a\	le	2dd\	-chi
.	.	.	.	.	.	4b-\	più	.	.
!LO:SIC:v:t=custos c	!	!	!	!	!	!	!	!	!
8d\	più	8f\	più	.	.	.	.	.	.
!LO:LB:g=original	!	!	!	!	!	!	!	!	!
=7-	=7-	=7-	=7-	=7-	=7-	=7-	=7-	=7-	=7-
4c\	vol-	4e\	vol-	2r	.	4a\	vol-	4r	.
4B-\	-te	4d\	-te	.	.	4g\	-te	4g/	in
2A/	man-	4cny/	man-	4r	.	2f#X\	man-	8a/	me-
!	!	!	!	!	!	!	!	!	!LO:MO:mod=-zo_al
.	.	.	.	.	.	.	.	8b-/	-z'_al
.	.	4A/	-chi	4c/	Che	.	.	2cc\	cor-
2G/	-chi	4r	.	4.d\	le	1g	-chi	.	.
!	!	!	!	!	!	!	!	!LO:N:acc=#	!
.	.	4d\	in	.	.	.	.	4bn/	-ſo
.	.	.	.	8d\	più	.	.	.	.
4r	.	8e\	me-	4c/	vol-	.	.	2r	.
!	!	!	!LO:MO:mod=-zo_al	!	!	!	!	!	!
.	.	8f\	-z'_al	.	.	.	.	.	.
4G/	in	4g\	cor-	4B-/	-te	.	.	.	.
=8-	=8-	=8-	=8-	=8-	=8-	=8-	=8-	=8-	=8-
8A/	me-	2c/	-ſo	2A/	man-	2r	.	4r	.
!	!LO:MO:mod=-zo_al	!	!	!	!	!	!	!	!
8B-\	-z'al	.	.	.	.	.	.	.	.
2c\	cor-	.	.	.	.	.	.	4cc\	che
.	.	2r	.	2G/	-chi	4r	.	4.dd\	le
!LO:N:acc=#	!	!	!	!	!	!	!	!	!
4Bn\	-ſo	.	.	.	.	4d/	in	.	.
.	.	.	.	.	.	.	.	8dd\	più
!	!	!	!LO:MO:mod=che	!	!	!	!	!	!
1r	.	2c/	Che	2r	.	8e/	me-	4cc\	vol-
!	!	!	!	!	!	!	!LO:MO:mod=-zo_al	!	!
.	.	.	.	.	.	8fny\	-z'_al	.	.
.	.	.	.	.	.	2g\	cor-	4b-y/	-te
.	.	4.d\	le	4r	.	.	.	2.a/	man-
!	!	!	!	!	!	!LO:SIC:v:t=custos g	!	!	!
.	.	.	.	4d\	in	4f#X\	-ſo	.	.
!	!	!	!LO:MO:mod=più	!	!	!	!	!	!
.	.	8d\	piu	.	.	.	.	.	.
!	!	!	!	!	!	!LO:LB:g=original	!	!	!
=9-	=9-	=9-	=9-	=9-	=9-	=9-	=9-	=9-	=9-
2r	.	4c/	vol-	8e\	me-	4r	.	.	.
!	!	!	!	!	!LO:MO:mod=-zo_al	!	!	!	!
.	.	.	.	8f\	-z'_al	.	.	.	.
*	*	*	*	*	*	*	*ij	*	*
.	.	4B-/	-te	4g\	cor-	4g\	in	4g/	-chi
!	!	!LO:SIC:v:t=custos G	!	!	!	!	!	!	!
4r	.	2A/	man-	2c/	-ſo	8a\	me-	2r	.
!	!	!	!	!	!	!	!LO:MO:mod=-zo_al	!	!
.	.	.	.	.	.	8b-\	-z'_al	.	.
!	!LO:MO:mod=che	!	!	!	!	!	!	!	!
4c\	Che	.	.	.	.	2cc\	cor-	.	.
!	!	!LO:LB:g=original	!	!	!	!	!	!	!
4.d\	le	2G/	-chi	4r	.	.	.	2r	.
!	!	!	!	!	!	!LO:N:acc=#	!	!	!
.	.	.	.	4G/	in	4bn\	-ſo	.	.
!	!LO:MO:mod=più	!	!	!	!	!	!	!	!
8d\	piu	.	.	.	.	.	.	.	.
4c\	vol-	2r	.	8A/	me-	2r	.	4r	.
!	!	!	!	!	!LO:MO:mod=-zo_al	!	!	!	!
.	.	.	.	8B-/	-z'_al	.	.	.	.
4F/	-te	.	.	2c/	cor-	.	.	4cc\	in
*	*	*	*	*	*	*	*Xij	*	*
=10-	=10-	=10-	=10-	=10-	=10-	=10-	=10-	=10-	=10-
2E/	man-	2r	.	.	.	4r	.	8ee\	me-
!	!	!	!	!	!	!	!	!LO:SIC:v:t=custos gg	!
.	.	.	.	.	.	.	.	8ff\	zo_al
!	!	!	!	!LO:N:acc=#	!	!	!LO:MO:mod=che	!LO:LB:g=original	!
.	.	.	.	4Bn/	-ſo	4g\	Che	2gg\	cor-
2D/	-chi	4r	.	2r	.	4.a\	le	.	.
.	.	4A/	in	.	.	.	.	4ff#X\	-ſo
!	!	!	!	!	!	!	!LO:MO:mod=più	!	!
.	.	.	.	.	.	8a\	piu	.	.
4r	.	8B-/	me-	4r	.	4g\	vol-	1r	.
!	!	!	!LO:MO:mod=-zo_al	!	!	!	!	!	!
.	.	8c/	-z'_al	.	.	.	.	.	.
*	*	*	*	*	*ij	*	*	*	*
4D/	in	4d\	cor-	4d\	in	4fny\	-te	.	.
!	!	!	!	!	!	!	!LO:MO:mod=man-	!	!
8E/	me-	2g\	-ſo	8G/	me-	2e/	ma(n)-	.	.
!LO:SIC:v:t=custos G	!LO:MO:mod=-zo_al	!	!	!LO:SIC:v:t=custos B	!LO:MO:mod=-zo_al	!	!	!	!
8F/	-z'_al	.	.	8A/	-z'_al	.	.	.	.
!LO:LB:g=original	!	!	!	!LO:LB:g=original	!	!	!	!	!
!	!	!	!	!LO:MO:mod=[4B-i	!	!	!	!	!
2G/	cor-	.	.	2B-y/	cor-	.	.	.	.
=11-	=11-	=11-	=11-	=11-	=11-	=11-	=11-	=11-	=11-
!	!	!	!	!LO:MO:null:mod=4B-]	!	!	!LO:MO:mod=-chi_in	!	!
.	.	1r	.	.	.	2d/	-ch'_i	4r	.
4F#X/	-ſo	.	.	4A/	-ſo	.	.	4dd\	in
2r	.	.	.	2r	.	8e/	me-	8g/	me-
!	!	!	!	!	!	!	!LO:MO:mod=-zo_al	!	!
.	.	.	.	.	.	8f\	-z'_al	8a/	zo_al
.	.	.	.	.	.	2g\	cor-	2b-/	cor-
1r	.	1d	Ri-	1r	.	.	.	.	.
.	.	.	.	.	.	4f#X\	-ſo	4a/	-ſo
.	.	.	.	.	.	2r	.	2r	.
*	*	*	*	*	*Xij	*	*	*	*
=12-	=12-	=12-	=12-	=12-	=12-	=12-	=12-	=12-	=12-
!	!	!	!	!	!	!	!	!LO:N:acc=#	!
1G	Ri-	1d	-pen-	1d	Ri-	1g	Ri-	1bn	Ri-
1G	-pen-	1G	-ſa	1d	-pen-	1g	-pen-	1b	-pen-
=13-	=13-	=13-	=13-	=13-	=13-	=13-	=13-	=13-	=13-
!	!	!	!LO:MO:mod=ri-	!	!	!	!	!	!
1C	-ſa	1g	Ri-	1c	-ſa	1e	-ſa	1cc	-ſa
!	!LO:MO:mod=ri-	!	!	!	!LO:MO:mod=ri-	!	!LO:MO:mod=ri-	!	!LO:MO:mod=ri-
1c	Ri-	1g	-pen-	1c	Ri-	1e	Ri-	1cc	Ri-
=14-	=14-	=14-	=14-	=14-	=14-	=14-	=14-	=14-	=14-
!	!	!	!LO:MO:mod=-sa_al	!	!LO:MO:mod=-pen-	!	!	!	!
1c	-pen-	1.c	-ſ'_al	1e	-pe(n)-	1g	-pen-	1cc	-pen-
!	!LO:MO:mod=-sa_al	!	!	!	!LO:MO:mod=-sa_al	!LO:SIC:v:t=custos a	!LO:MO:mod=-sa_al	!	!
1Fny	-s'_al	.	.	1f	-s'_al	1a	-s'_al	1cc	ſa_al
.	.	1A/	ve-	.	.	.	.	.	.
!	!	!	!	!	!	!LO:LB:g=original	!	!	!
=15-	=15-	=15-	=15-	=15-	=15-	=15-	=15-	=15-	=15-
2A/	ve-	.	.	2e\	ve-	2a\	ve-	2cc#X\	ve-
2F/	-le-	2A/	-le-	1d	-le-	2a\	-le-	2dd\	-le-
1E	-no-	1e	-no-	.	.	1g#X	-no-	1ee	-no-
.	.	.	.	2c/	-no-	.	.	.	.
=16-	=16-	=16-	=16-	=16-	=16-	=16-	=16-	=16-	=16-
!	!	!	!	!LO:N:acc=#	!	!LO:SIC:s=2g#i	!	!	!
2E/	-ſo_a-	1e	-ſo_a-	2Bn/	-ſo_a-	2g#yX\	-ſo_a-	1ee	-ſo_a-
1A	-cu-	.	.	1c	-cu-	2a\	-cu-	.	.
.	.	2c/	-cu-	.	.	2e/	-to	2a/	-cu-
2F/	-to	2c/	-to	2A/	-to	2.fny\	ſtra-	2a/	-to
=17-	=17-	=17-	=17-	=17-	=17-	=17-	=17-	=17-	=17-
!	!	!	!	!	!	!	!	!LO:SIC:v:t=custos a	!
1C	ſtra-	1c	ſtra-	1G	ſtra-	.	.	1ccny	ſtra-
!	!	!	!	!	!	!LO:SIC:s=8eL	!	!	!
.	.	.	.	.	.	8e/	.	.	.
!	!	!	!	!	!	!LO:SIC:s=8dJ	!	!	!
.	.	.	.	.	.	8d/	.	.	.
.	.	.	.	.	.	2e/	.	.	.
!	!	!	!	!	!	!	!	!LO:LB:g=original	!
2F/	-le	2c/	-le	1F	-le	4f\	-le	1a	-le
.	.	.	.	.	.	2c/	ch'er-	.	.
!	!LO:MO:mod=ch'er-	!	!	!	!	!	!	!	!
2F/	Ch'er-	2A/	ch'er-	.	.	.	.	.	.
!	!	!	!	!	!	!	!LO:MO:mod=-rar	!	!
.	.	.	.	.	.	2d/	-ar	.	.
=18-	=18-	=18-	=18-	=18-	=18-	=18-	=18-	=18-	=18-
!	!LO:MO:mod=-rar	!LO:SIC:v:t=custos c	!	!	!	!	!	!	!
2G/	-ar	2B-/	-rar	0r	.	.	.	0r	.
.	.	.	.	.	.	2e/	mi	.	.
!	!	!LO:LB:g=original	!	!	!	!	!	!	!
2A/	mi	2c/	mi	.	.	.	.	.	.
.	.	.	.	.	.	2f\	fa	.	.
2B-y\	fa	2d\	fa	.	.	.	.	.	.
.	.	.	.	.	.	2gny\	per	.	.
2c\	per	2e\	per	.	.	.	.	.	.
.	.	.	.	.	.	4.a\	que-	.	.
=19-	=19-	=19-	=19-	=19-	=19-	=19-	=19-	=19-	=19-
4.d\	que-	4.f\	que-	1r	.	.	.	1r	.
!	!	!	!	!	!	!	!LO:MO:mod=-sto_al-	!	!
.	.	.	.	.	.	8g\	-ſt'_al-	.	.
.	.	.	.	.	.	2f\	-pe-	.	.
!LO:SIC:v:t=custos B	!LO:MO:mod=-sto_al-	!	!LO:MO:mod=-sto_al-	!	!	!	!	!	!
8c\	-ſt'_al-	8e\	-ſt'_al-	.	.	.	.	.	.
!LO:LB:g=original	!	!	!	!	!	!	!	!	!
4B-\	-pe-	4d\	-pe-	.	.	.	.	.	.
4c\	-ſtro	4c/	-ſtro	.	.	4e/	-ſtro	.	.
!	!	!LO:N:acc=#	!	!	!	!	!	!	!
2G/	bo-	2Bn/	bo-	2r	.	2d/	bo-	4r	.
.	.	.	.	.	.	.	.	2g/	ch'er-
!	!	!	!	!	!LO:MO:mod=ch'er-	!	!	!	!
2C/	-ſco	4c/	-ſco	2c/	Ch'er-	2e/	-ſco	.	.
!	!	!	!LO:MO:mod=ch'er-	!	!	!	!	!	!
.	.	4e\	Ch'er-	.	.	.	.	2a/	-rar
=20-	=20-	=20-	=20-	=20-	=20-	=20-	=20-	=20-	=20-
!	!	!	!	!	!LO:MO:mod=-rar	!	!	!	!
2r	.	2f\	-rar	2d\	-ar	2r	.	.	.
!	!	!	!	!	!	!	!	!LO:N:acc=#	!
.	.	.	.	.	.	.	.	4bn/	mi
!	!LO:MO:mod=ch'er-	!	!	!	!	!	!	!	!
2c\	Ch'er-	4e\	mi	2A/	mi	4r	.	2cc\	fa
!	!	!	!	!	!	!LO:SIC:v:t=custos f	!LO:MO:mod=ch'er-	!	!
.	.	2f\	fa	.	.	4a\	Ch'er-	.	.
!	!	!	!	!	!	!LO:LB:g=original	!	!	!
2d\	-rar	.	.	2B-y/	fa	2f\	-rar	2r	.
.	.	4d\	per	.	.	.	.	.	.
2A/	mi	2a\	que-	2c/	per	4e/	mi	4r	.
*	*	*	*	*	*	*	*	*	*ij
.	.	.	.	.	.	2f\	fa	2cc\	ch'er-
=21-	=21-	=21-	=21-	=21-	=21-	=21-	=21-	=21-	=21-
!	!	!	!LO:MO:mod=-sto_al-	!	!	!	!	!	!
2F/	fa	2a\	-ſt'_al-	4.f\	que-	.	.	.	.
.	.	.	.	.	.	4a\	per	2dd\	-rar
!	!	!	!	!LO:SIC:v:t=custos d	!LO:MO:mod=-sto_al-	!	!	!	!
.	.	.	.	8e\	-ſt'_al-	.	.	.	.
!	!	!	!	!LO:LB:g=original	!	!	!	!	!
2G/	per	4.g\	-pe-	4d\	-pe-	2b-y\	que-	.	.
.	.	.	.	4g\	-ſtro	.	.	2ee\	mi
.	.	8f\	-ſtro	.	.	.	.	.	.
!	!	!	!	!	!	!	!LO:MO:mod=-sto_al-	!	!
4.A/	que-	4e\	bo-	2c/	bo-	2a\	-ſt'_al-	.	.
.	.	4c/	-ſco	.	.	.	.	2ffny\	fa
!	!LO:MO:mod=-sto_al-	!	!	!	!	!	!	!	!
8G/	-ſt'_al	.	.	.	.	.	.	.	.
4F/	pe-	4r	.	2d\	-ſco	4a\	-pe-	.	.
!	!	!LO:SIC:v:t=custos g	!	!	!	!LO:N:acc=#	!	!	!
*	*	*	*	*	*	*	*	*	*Xij
4G/	-ſtro	4d\	per	.	.	4bn\	-ſtro	4dd\	per
!	!	!LO:LB:g=original	!	!	!	!	!	!	!
=22-	=22-	=22-	=22-	=22-	=22-	=22-	=22-	=22-	=22-
1C	bo-	4.g\	que-	1r	.	1cc	bo-	4.ee\	que-
!	!	!	!LO:MO:mod=-sto_al-	!	!	!	!	!	!LO:MO:mod=-sto_al-
.	.	8f\	-ſt'_al-	.	.	.	.	8ff\	-ſt'_al-
.	.	4e\	-pe-	.	.	.	.	4gg\	-pe-
.	.	4g\	-ſtro	.	.	.	.	4ee\	-ſtro
1D	-ſco	4.f\	bo-	2r	.	2a\	-ſco	2dd\	bo-
.	.	8g\	.	.	.	.	.	.	.
.	.	2a\	.	1d\	Ve-	1f\	Ve-	2dd\	-ſco
=23-	=23-	=23-	=23-	=23-	=23-	=23-	=23-	=23-	=23-
1A	Ve-	1a	-ſco	.	.	.	.	1r	.
.	.	.	.	2c/	-di	2e/	-di	.	.
!	!	!	!	!	!LO:MO:mod=che	!	!LO:MO:mod=che	!	!
1F	-di	1r	.	4f\	Che	4a\	Che	0cc	Ve-
!	!	!	!	!	!LO:MO:mod=s'ap-	!	!	!	!
.	.	.	.	8f\	s'a-	8a\	s'ap-	.	.
.	.	.	.	8g\	-pa-	8b-y\	-pa-	.	.
!	!	!	!	!	!LO:MO:mod=-rec-	!	!	!	!
.	.	.	.	4a\	-re-	4cc\	-rec-	.	.
!	!	!	!	!	!LO:MO:mod=chia_un	!	!LO:MO:mod=-chia_un	!	!
.	.	.	.	4f\	chia_u(n)	4a\	chia_vn	.	.
=24-	=24-	=24-	=24-	=24-	=24-	=24-	=24-	=24-	=24-
0r	.	0r	.	4e\	cru-	4g\	cru-	.	.
.	.	.	.	4f\	-del	4a\	-del	.	.
!	!	!	!	!LO:SIC:s=8cL	!	!LO:SIC:s=8eL	!	!	!
.	.	.	.	8c/	ven-	8e/	ver-	.	.
.	.	.	.	8d\	.	8f\	.	.	.
.	.	.	.	8e\	.	8g\	.	.	.
!	!	!	!	!	!	!LO:SIC:s=8eJ	!	!	!
!	!	!	!	!LO:SIC:s=8cJ	!	!LO:SIC:v:t=custos f	!	!	!
.	.	.	.	8c\	.	8e\	.	.	.
!	!	!	!	!	!	!LO:LB:g=original	!	!	!
!	!	!	!	!LO:SIC:s=8dL	!	!LO:SIC:s=8fL	!	!	!
.	.	.	.	8d\	.	8f\	.	1f	-di
.	.	.	.	8c\	.	8e/	.	.	.
.	.	.	.	8B-/	.	8d/	.	.	.
.	.	.	.	8c/	.	8e\	.	.	.
.	.	.	.	8d\	.	8f\	.	.	.
.	.	.	.	8e\	.	8g\	.	.	.
.	.	.	.	8f\	.	8a\	.	.	.
!	!	!	!	!LO:SIC:s=8dJ	!	!LO:SIC:s=8b-J	!	!	!
.	.	.	.	8d\	.	8b-\	.	.	.
=25-	=25-	=25-	=25-	=25-	=25-	=25-	=25-	=25-	=25-
!	!	!	!LO:MO:mod=ve-	!	!	!	!	!	!
1r	.	1c	Ve-	4e\	.	4cc\	.	1r	.
!	!	!	!	!	!	!LO:SIC:s=8b-L	!	!	!
.	.	.	.	2f\	.	8b-\	.	.	.
!	!	!	!	!	!	!LO:SIC:s=8aJ	!	!	!
.	.	.	.	.	.	8a\	.	.	.
.	.	.	.	.	.	2g\	.	.	.
!	!	!	!	!LO:SIC:v:t=custos f	!	!	!	!	!
.	.	.	.	4e\	.	.	.	.	.
!	!	!	!	!LO:LB:g=original	!	!	!	!LO:SIC:v:t=custos a	!
4F/	che	1F	-di	2f\	-to	1cc	-to	4a/	che
!	!	!	!	!	!	!	!	!LO:LB:g=original	!LO:MO:mod=s'ap-
8F/	s'ap-	.	.	.	.	.	.	8a/	s'a-
!LO:SIC:v:t=custos A	!	!	!	!	!	!	!	!	!
8G/	-pa-	.	.	.	.	.	.	8b-y/	-pa-
!LO:LB:g=original	!LO:MO:mod=-rec-	!	!	!	!	!	!	!	!LO:MO:mod=-rec-
4A/	-re-	.	.	2r	.	.	.	4cc\	-re-
!	!LO:MO:mod=chia_un	!	!	!	!	!	!	!	!LO:MO:mod=chia_un
4F/	chia_u(n)	.	.	.	.	.	.	4a/	chia_vn
=26-	=26-	=26-	=26-	=26-	=26-	=26-	=26-	=26-	=26-
!	!	!	!	!	!LO:MO:mod=ve-	!	!	!	!
4E/	cru-	0r	.	1c	Ve-	1r	.	4g/	cru-
4F/	-del	.	.	.	.	.	.	4a/	-del
!LO:SIC:s=8CL	!	!	!	!	!	!	!	!LO:SIC:s=8eL	!
8C/	ven-	.	.	.	.	.	.	8e/	ven-
8D/	.	.	.	.	.	.	.	8f/	.
8E/	.	.	.	.	.	.	.	8g/	.
!LO:SIC:s=8CJ	!	!	!	!	!	!	!	!LO:SIC:s=8eJ	!
8C/	.	.	.	.	.	.	.	8e/	.
!LO:SIC:s=8DL	!	!	!	!	!	!	!LO:MO:mod=ve-	!LO:SIC:s=8fL	!
8D/	.	.	.	1F	-di	1a	Ve-	8f/	.
8E/	.	.	.	.	.	.	.	8g/	.
8F/	.	.	.	.	.	.	.	8a/	.
!LO:SIC:s=8GJ	!	!	!	!	!	!	!	!LO:SIC:s=8b-J	!
8G/	.	.	.	.	.	.	.	8b-/	.
2A/	.	.	.	.	.	.	.	2.cc\	.
=27-	=27-	=27-	=27-	=27-	=27-	=27-	=27-	=27-	=27-
*	*	*	*ij	*	*	*	*	*	*
!	!	!	!LO:MO:mod=ve-	!	!	!	!	!	!
1G	-to	1g	Ve-	1r	.	1d	-di	.	.
!	!	!	!	!	!	!	!	!LO:SIC:s=8bL	!
!	!	!	!	!	!	!	!	!LO:N:acc=#	!
.	.	.	.	.	.	.	.	8bn/	.
!	!	!	!	!	!	!	!	!LO:SIC:s=8aJ	!
.	.	.	.	.	.	.	.	8a/	.
!	!	!	!	!	!	!	!	!LO:SIC:s=2bi	!
.	.	.	.	.	.	.	.	2b/	.
!LO:MO:mod=1r	!	!	!	!	!	!	!	!	!
00r	.	1c	-di	4c/	che	4e/	che	1cc	-to
!	!	!	!	!	!LO:MO:mod=s'ap-	!	!	!	!
.	.	.	.	8c/	s'a-	8e/	s'ap-	.	.
.	.	.	.	8d\	-pa-	8f\	-pa-	.	.
!	!	!	!	!	!LO:MO:mod=-rec-	!	!LO:MO:mod=-rec-	!	!
.	.	.	.	4e\	-re-	4g\	-re-	.	.
!	!	!	!	!	!LO:MO:mod=chia_un	!	!LO:MO:mod=chia_un	!	!
.	.	.	.	4c/	chia_u(n)	4e/	chia_u(n)	.	.
*	*	*	*Xij	*	*	*	*	*	*
=28-	=28-	=28-	=28-	=28-	=28-	=28-	=28-	=28-	=28-
!LO:MO:null:mod=0r	!	!	!	!	!	!	!	!	!LO:MO:mod=ve-
.	.	1r	.	4e\	cru-	4g\	cru-	1cc	Ve-
.	.	.	.	4f\	-del	4a\	-del	.	.
!	!	!	!	!LO:SIC:s=8cL	!	!LO:SIC:s=8eL	!	!	!
.	.	.	.	8c/	ven-	8e/	ven-	.	.
.	.	.	.	8d\	.	8f\	.	.	.
.	.	.	.	8e\	.	8g\	.	.	.
!	!	!	!	!	!	!LO:SIC:s=8eJ	!	!	!
!	!	!	!	!LO:SIC:s=8cJ	!	!LO:SIC:v:t=custos f	!	!	!
.	.	.	.	8c\	.	8e/	.	.	.
!	!	!	!	!	!	!LO:SIC:s=8fL	!	!	!
!	!	!	!LO:MO:mod=ve-	!LO:SIC:s=8dL	!	!LO:LB:g=original	!	!	!
.	.	1f	Ve-	8d\	.	8f\	.	1f	-di
.	.	.	.	8c/	.	8e\	.	.	.
.	.	.	.	8B-/	.	8d/	.	.	.
.	.	.	.	8c/	.	8e/	.	.	.
.	.	.	.	8d\	.	8f\	.	.	.
.	.	.	.	8e\	.	8g\	.	.	.
.	.	.	.	8f\	.	8a\	.	.	.
!	!	!	!	!LO:SIC:s=8dJ	!	!LO:SIC:s=8b-J	!	!	!
.	.	.	.	8d\	.	8b-\	.	.	.
=29-	=29-	=29-	=29-	=29-	=29-	=29-	=29-	=29-	=29-
!LO:MO:null:mod=0r	!	!	!	!	!	!	!	!	!
.	.	1c	-di	4e\	.	4cc\	.	1r	.
!	!	!	!	!	!	!LO:SIC:s=8b-L	!	!	!
.	.	.	.	2f\	.	8b-\	.	.	.
!	!	!	!	!	!	!LO:SIC:s=8aJ	!	!	!
.	.	.	.	.	.	8a\	.	.	.
.	.	.	.	.	.	2g\	.	.	.
.	.	.	.	4e\	.	.	.	.	.
!LO:MO:mod=.	!	!	!	!LO:SIC:v:t=custos f	!	!	!	!	!
00r	.	4F/	che	0f	-to	1a	-to	4a/	che
!	!	!	!LO:MO:mod=s'ap-	!	!	!	!	!	!
.	.	8F/	s'a-	.	.	.	.	8a/	s'ap-
!	!	!	!	!	!	!	!	!LO:SIC:v:t=custos cc	!
.	.	8G/	-pa-	.	.	.	.	8b-y/	-pa-
!	!	!	!LO:MO:mod=-rec-	!	!	!	!	!LO:LB:g=original	!LO:MO:mod=-rec-
.	.	4A/	-re-	.	.	.	.	4cc\	-re-
!	!	!	!LO:MO:mod=chia_un	!	!	!	!	!	!LO:MO:mod=chia_un
.	.	4F/	chia_u(n)	.	.	.	.	4a/	chia_vn
!	!	!	!	!LO:LB:g=original	!	!	!	!	!
=30-	=30-	=30-	=30-	=30-	=30-	=30-	=30-	=30-	=30-
!LO:MO:null:mod=0r	!	!	!	!	!	!	!	!	!
.	.	4A/	cru-	.	.	4f\	che	4cc\	cru-
!	!	!LO:SIC:v:t=custos F	!	!	!	!	!LO:MO:mod=s'ap-	!	!
.	.	4B-y/	-del	.	.	8f\	s'a-	4dd\	-del
.	.	.	.	.	.	8g\	-pa-	.	.
!	!	!LO:SIC:s=8FL	!	!	!	!	!	!	!
!	!	!LO:LB:g=original	!	!	!	!	!LO:MO:mod=-rec-	!LO:SIC:s=8aL	!
.	.	8F/	ven-	.	.	4a\	-re-	8a/	ven-
.	.	8G/	.	.	.	.	.	8b-/	.
!	!	!	!	!	!	!	!LO:MO:mod=-chia_un	!	!
.	.	8A/	.	.	.	4f\	-chia_vn	8cc\	.
!	!	!LO:SIC:s=8FJ	!	!	!	!	!	!LO:SIC:s=8aJ	!
.	.	8F/	.	.	.	.	.	8a/	.
!	!	!LO:SIC:s=8GL	!	!	!	!	!	!LO:SIC:s=8b-L	!
.	.	8G/	.	4r	.	2d/	cru-	8b-/	.
!	!	!	!	!	!	!	!	!LO:SIC:s=8ccJ	!
.	.	8A/	.	.	.	.	.	8cc\	.
!	!	!	!	!	!LO:MO:mod=un	!	!	!	!
.	.	8B-/	.	4f\	vn	.	.	4.dd\	.
.	.	8c/	.	.	.	.	.	.	.
.	.	8d\	.	4B-/	cru-	2f\	-del	.	.
!	!	!LO:SIC:s=8eJ	!	!	!	!	!	!LO:SIC:s=16ccL	!
.	.	8e\	.	.	.	.	.	16cc\	.
.	.	.	.	.	.	.	.	16b-\	.
!	!	!	!	!	!	!	!	!LO:SIC:s=8aL	!
.	.	2f\	.	4d\	-del	.	.	8a/	.
!	!	!	!	!	!	!	!	!LO:SIC:s=8b-JJ	!
.	.	.	.	.	.	.	.	8b-/	.
=31-	=31-	=31-	=31-	=31-	=31-	=31-	=31-	=31-	=31-
!LO:MO:null:mod=1r	!	!	!	!	!	!	!	!	!
.	.	.	.	1c	ven-	1g	ven-	1cc	.
!	!	!LO:SIC:s=8eL	!	!	!	!	!	!	!
.	.	8e\	.	.	.	.	.	.	.
!	!	!LO:SIC:s=8dJ	!	!	!	!	!	!	!
.	.	8d\	.	.	.	.	.	.	.
.	.	2e\	.	.	.	.	.	.	.
2r	.	2.f\	-to	1F	-to	1a	-to	1cc	-to
1F/	Che	.	.	.	.	.	.	.	.
.	.	4g\	.	.	.	.	.	.	.
=32-	=32-	=32-	=32-	=32-	=32-	=32-	=32-	=32-	=32-
.	.	1a	.	1r	.	2r	.	2.ff\	Che
2A/	mi-	.	.	.	.	1f	Che	.	.
.	.	.	.	.	.	.	.	4cc\	mi-
2B-\	-nac-	1r	.	2.f\	Che	.	.	2dd\	-nac-
2F/	-cia	.	.	.	.	2a\	mi-	2cc\	-cia
.	.	.	.	4c/	mi-	.	.	.	.
=33-	=33-	=33-	=33-	=33-	=33-	=33-	=33-	=33-	=33-
2r	.	2.a\	Che	2d\	-nac-	2f\	-nac-	2r	.
*	*ij	*	*	*	*	*	*	*	*
!	!LO:MO:mod=che	!	!	!	!LO:MO:mod=-cia_u-	!	!LO:MO:mod=-cia_u-	!	!LO:MO:mod=che
2F/	Che	.	.	4.A/	-cia_v-	4c/	-cia_v-	2.ff\	Che
!	!	!	!	!	!	!LO:SIC:v:t=custos cc	!LO:MO:mod=-na_e-	!	!
.	.	4f\	mi-	.	.	4cc\	-n'_e-	.	.
!	!	!	!	!	!LO:MO:mod=-na_e-	!	!	!	!
.	.	.	.	8B-/	-n'_e-	.	.	.	.
!	!	!	!	!	!	!LO:LB:g=original	!	!	!
2A/	mi-	2f\	-nac-	2c/	-ter-	2cc\	-ter-	.	.
.	.	.	.	.	.	.	.	4cc\	mi-
!	!	!	!	!	!	!	!	!LO:SIC:v:t=custos a	!
2B-\	-nac-	2.d\	cia_v-	2f\	-na	2b-\	-na	2dd\	-nac-
!	!	!	!	!	!	!	!	!LO:LB:g=original	!
=34-	=34-	=34-	=34-	=34-	=34-	=34-	=34-	=34-	=34-
!LO:SIC:v:t=custos B-	!LO:MO:mod=-cia_u-	!	!	!	!	!	!	!	!LO:MO:mod=-cia_u-
0F	-cia_v-	.	.	4r	.	4r	.	4.a/	-cia_v-
!	!	!	!LO:MO:mod=-na_e-	!	!	!	!	!	!
.	.	4c/	-n'_e-	4a\	e	4cc\	e	.	.
!	!	!	!	!	!	!	!	!	!LO:MO:mod=-na_e-
.	.	.	.	.	.	.	.	8b-/	-n'_e-
.	.	2c/	-ter-	4a\	ne-	4cc\	ne-	1cc	-ter-
.	.	.	.	4a\	-gra	4cc\	-gra	.	.
!	!	!	!	!LO:SIC:s=8fL	!	!LO:SIC:s=8aL	!	!	!
.	.	2c/	-na	8f\	piog-	8a\	piog-	.	.
.	.	.	.	8g\	.	8b-\	.	.	.
.	.	.	.	8a\	.	8cc\	.	.	.
.	.	.	.	8g\	.	8b-\	.	.	.
.	.	2r	.	8f\	.	8a\	.	2ff\	-na
.	.	.	.	8e\	.	8g\	.	.	.
.	.	.	.	8d\	.	8f\	.	.	.
!	!	!	!	!LO:SIC:s=8cJ	!	!	!	!	!
!	!	!	!	!LO:SIC:v:t=custos B	!	!LO:SIC:s=8eJ	!	!	!
.	.	.	.	8c\	.	8e\	.	.	.
!LO:LB:g=original	!	!	!	!LO:LB:g=original	!	!	!	!	!
=35-	=35-	=35-	=35-	=35-	=35-	=35-	=35-	=35-	=35-
!	!LO:SIC:s=-na_e-	!	!	!LO:SIC:s=8B-L	!	!LO:SIC:s=8dL	!	!	!
0B-	-n'e-	4r	.	8B-/	.	8d/	.	4r	.
.	.	.	.	8c/	.	8c/	.	.	.
!	!	!LO:SIC:v:t=custos d	!	!	!	!	!	!	!
.	.	4d\	e	8d\	.	8B-/	.	4ff\	e
!	!	!	!	!LO:SIC:s=8eJ	!	!LO:SIC:s=8cJ	!	!	!
.	.	.	.	8e\	.	8c/	.	.	.
!	!	!LO:LB:g=original	!	!	!	!	!	!	!
.	.	4d\	ne-	2f\	.	2d/	.	4ff\	ne-
.	.	4d\	-gra	.	.	.	.	4ff\	-gra
!	!	!LO:SIC:s=8B-L	!	!	!	!	!	!LO:SIC:s=8ddL	!
.	.	8B-/	piog-	1f	-gia	1d	-gia	8dd\	piog-
.	.	8c/	.	.	.	.	.	8ee\	.
.	.	8d\	.	.	.	.	.	8ff\	.
.	.	8e\	.	.	.	.	.	8ee\	.
.	.	8f\	.	.	.	.	.	8dd\	.
.	.	8e\	.	.	.	.	.	8cc\	.
.	.	8d\	.	.	.	.	.	8b-\	.
!	!	!LO:SIC:s=8cJ	!	!	!	!	!	!LO:SIC:s=8ccJ	!
.	.	8c/	.	.	.	.	.	8cc\	.
=36-	=36-	=36-	=36-	=36-	=36-	=36-	=36-	=36-	=36-
!	!	!LO:SIC:s=8B-L	!	!	!	!	!	!	!
0G	-ter-	8B-/	.	4r	.	4r	.	1.dd	.
.	.	8A/	.	.	.	.	.	.	.
.	.	8G/	.	4d\	e	4b-\	e	.	.
.	.	8A/	.	.	.	.	.	.	.
.	.	8B-/	.	4d\	ne-	4b-\	ne-	.	.
!	!	!LO:SIC:s=8cJ	!	!	!	!	!	!	!
.	.	8c/	.	.	.	.	.	.	.
.	.	4d\	.	4d\	-gra	4b-\	-gra	.	.
!	!	!	!	!LO:SIC:s=8B-L	!	!LO:SIC:s=8gL	!	!	!
.	.	2d\	-gia	8B-/	piog-	8g\	piog-	.	.
.	.	.	.	8c/	.	8a\	.	.	.
.	.	.	.	8d\	.	8b-\	.	.	.
.	.	.	.	8c/	.	8a\	.	.	.
.	.	2r	.	8B-/	.	8g\	.	2gg\	-gia
!	!	!	!	!LO:SIC:s=8AJ	!	!	!	!	!
.	.	.	.	8A/	.	8f\	.	.	.
.	.	.	.	4G/	.	8e\	.	.	.
!	!	!	!	!	!	!LO:SIC:s=8dJ	!	!	!
!	!	!	!	!	!	!LO:SIC:v:t=custos e	!	!	!
.	.	.	.	.	.	8d/	.	.	.
!	!	!	!	!	!	!LO:PB:g=original	!	!	!
=37-	=37-	=37-	=37-	=37-	=37-	=37-	=37-	=37-	=37-
1C	-na	4r	.	1G	-gia	4.e/	.	4r	.
*	*	*	*ij	*	*	*	*	*	*
.	.	4e\	e	.	.	.	.	4gg\	e
.	.	.	.	.	.	8f\	.	.	.
.	.	4e\	ne-	.	.	2g\	.	4gg\	ne-
.	.	4e\	-gra	.	.	.	.	4gg\	-gra
!	!	!LO:SIC:s=8cL	!	!	!	!	!	!LO:SIC:s=8eeL	!
4r	.	8c/	piog-	4r	.	1g	-gia	8ee\	piog-
.	.	8d\	.	.	.	.	.	8ff\	.
*	*	*	*	*	*ij	*	*	*	*
4c\	e	8e\	.	4e\	e	.	.	8gg\	.
!	!	!LO:SIC:s=8fJ	!	!	!	!	!	!	!
!	!	!LO:SIC:v:t=custos g	!	!	!	!	!	!LO:SIC:v:t=custos ee	!
.	.	8f\	.	.	.	.	.	8ff\	.
!	!	!LO:LB:g=original	!	!	!	!	!	!LO:LB:g=original	!
4c\	ne-	4g\	.	4e\	ne-	.	.	8ee\	.
!	!	!	!	!	!	!	!	!LO:SIC:s=8ddJ	!
.	.	.	.	.	.	.	.	8dd\	.
4c\	-gra	4c/	-gia	4e\	-gra	.	.	4cc\	.
*	*	*	*Xij	*	*	*	*	*	*
=38-	=38-	=38-	=38-	=38-	=38-	=38-	=38-	=38-	=38-
!LO:SIC:s=8AL	!	!	!	!LO:SIC:s=8cL	!	!	!	!	!
8A/	piog-	4r	.	8c/	piog-	4r	.	1cc	-gia
8B-\	.	.	.	8d\	.	.	.	.	.
8c\	.	4c/	e	8e\	.	4e/	e	.	.
8B-\	.	.	.	8d\	.	.	.	.	.
8A/	.	4c/	ne-	8c/	.	4e/	ne-	.	.
8G/	.	.	.	8B-/	.	.	.	.	.
8F/	.	4c/	-gra	8A/	.	4f\	-gra	.	.
!	!	!	!	!LO:SIC:s=8GJ	!	!	!	!	!
!LO:SIC:s=8EJ	!	!	!	!LO:SIC:v:t=custos F	!	!	!	!	!
8E/	.	.	.	8G/	.	.	.	.	.
!	!	!LO:SIC:s=8dL	!	!LO:LB:g=original	!	!LO:SIC:s=8fL	!	!	!
2D/	.	8d\	piog-	2F/	.	8f\	piog-	1r	.
.	.	8e\	.	.	.	8g\	.	.	.
.	.	8f\	.	.	.	8a\	.	.	.
.	.	8e\	.	.	.	8g\	.	.	.
2D/	-gia	8d\	.	4A/	-gia	8f\	.	.	.
.	.	8c/	.	.	.	8e/	.	.	.
*	*	*	*	*	*Xij	*	*	*	*
.	.	8B-/	.	4d\	e	8d/	.	.	.
!	!	!LO:SIC:s=8AJ	!	!	!	!LO:SIC:s=8cJ	!	!	!
.	.	8A/	.	.	.	8c/	.	.	.
=39-	=39-	=39-	=39-	=39-	=39-	=39-	=39-	=39-	=39-
4r	.	2G/	.	4d\	ne-	2B-/	.	4r	.
4G/	e	.	.	4d\	-gra	.	.	4gg\	e
!	!	!	!	!LO:SIC:s=8BL	!	!	!	!	!
!	!	!	!	!LO:N:acc=#	!	!	!	!	!
4G/	ne-	2g\	-gia	8Bn/	piog-	4d/	-gia	4gg\	ne-
.	.	.	.	8c\	.	.	.	.	.
*	*	*	*	*	*	*	*ij	*	*
4G/	-gra	.	.	8d\	.	4d/	e	4gg\	-gra
!	!	!	!	!LO:SIC:s=8BnJ	!	!	!	!	!
!	!	!	!	!LO:N:acc=#	!	!	!	!	!
.	.	.	.	8Bn/	.	.	.	.	.
!	!	!	!	!LO:SIC:s=8cL	!	!	!	!LO:SIC:s=8eeL	!
4.C/	piog-	4r	.	8c/	.	2g\	ne-	8ee\	piog-
.	.	.	.	8d\	.	.	.	8ff\	.
*	*	*	*ij	*	*	*	*	*	*
.	.	4e\	e	8e\	.	.	.	8gg\	.
!LO:SIC:v:t=custos E	!	!	!	!LO:SIC:s=8fJ	!	!	!	!	!
8D/	.	.	.	8f\	.	.	.	8ff\	.
!LO:LB:g=original	!	!	!	!	!	!	!	!	!
4.E/	.	4e\	ne-	2.g\	.	2g\	-gra	8ee\	.
!	!	!	!	!	!	!	!	!LO:SIC:s=8ddJ	!
.	.	.	.	.	.	.	.	8dd\	.
.	.	4e\	-gra	.	.	.	.	2cc\	.
8F/	.	.	.	.	.	.	.	.	.
=40-	=40-	=40-	=40-	=40-	=40-	=40-	=40-	=40-	=40-
1G	.	1d	piog-	.	.	1g	piog-	.	.
!	!	!	!	!	!	!	!	!LO:SIC:s=8bL	!
!	!	!	!	!LO:SIC:s=8fL	!	!	!	!LO:N:acc=#	!
.	.	.	.	8f\	.	.	.	8bn/	.
!	!	!	!	!LO:SIC:s=8eJ	!	!	!	!LO:SIC:s=8aJ	!
.	.	.	.	8e\	.	.	.	8a/	.
!	!	!	!	!	!	!	!	!LO:N:acc=#	!
.	.	.	.	2d\	.	.	.	2bn/	.
!LO:MO:mod=!LO&colon;N&colon;vis=0	!	!LO:MO:mod=!LO&colon;N&colon;vis=0	!	!LO:MO:mod=!LO&colon;N&colon;vis=0	!	!LO:MO:mod=!LO&colon;N&colon;vis=0	!	!LO:MO:mod=!LO&colon;N&colon;vis=0	!
!null	!	!null	!LO:MO:mod=-gia.	!null	!	!null	!LO:MO:mod=-gia.	!null	!
1Cl	-gia.	1cl	-gia	1el	-gia.	1gl	-gia	1ccl	-gia.
*	*Xij	*	*Xij	*	*	*	*Xij	*	*
==	==	==	==	==	==	==	==	==	==
*-	*-	*-	*-	*-	*-	*-	*-	*-	*-
!!!system-decoration: [(*)]
!!LO:MO:ori
!!!RDF**kern: l = terminal long
!!LO:MO:mod
!! !!!RDF**kern: i = editorial accidental
!!LO:MO:end
!!!ENC: Mateusz Solarz
!!!END: 2022-06-29
!!!ENC: Jan Barakat
!!!END: 2022-07-16
!!!ENC-modern: Andrzej Kubiczek
!!!END-modern: 2022-08-10
!!!filter-modern: shed -e "s/^custos:/Xcustos:/I" | shed -e "s/TX(.*):t=P:/tx$1:t=P:/LG" | shed -e "s/LO:N:/LO:n:$1/L" | sic -sq | modori -m | autostem -r | tie -s | humtr -p | shed -e "s/-//B"
